/* XPM */
static char * Collectible_xpm[] = {
"32 32 85 1",
" 	c #72751B",
".	c #5E3B24",
"+	c #59341D",
"@	c #5B3721",
"#	c #806F5E",
"$	c #7A6A56",
"%	c #796653",
"&	c #532C14",
"*	c #7C6D5C",
"=	c #64442C",
"-	c #867868",
";	c #705335",
">	c #6E5134",
",	c #836A4D",
"'	c #75593B",
")	c #7F6548",
"!	c #857866",
"~	c #613D25",
"{	c #654A35",
"]	c #94897B",
"^	c #8A7C6B",
"/	c #7D6144",
"(	c #877053",
"_	c #8E795C",
":	c #8A7256",
"<	c #887A69",
"[	c #93887B",
"}	c #6C4E39",
"|	c #998F81",
"1	c #938676",
"2	c #613E29",
"3	c #806649",
"4	c #694A2F",
"5	c #937D62",
"6	c #8C765A",
"7	c #9F9588",
"8	c #948778",
"9	c #988367",
"0	c #907A5D",
"a	c #674731",
"b	c #A1978A",
"c	c #9B9082",
"d	c #958064",
"e	c #6A4D31",
"f	c #968B7C",
"g	c #988B7E",
"h	c #A2988C",
"i	c #9C876C",
"j	c #735539",
"k	c #947F64",
"l	c #957F63",
"m	c #998468",
"n	c #9E9487",
"o	c #A1988B",
"p	c #988D7E",
"q	c #978C7C",
"r	c #9C9384",
"s	c #8F8270",
"t	c #8F816E",
"u	c #785A3E",
"v	c #886F52",
"w	c #867A69",
"x	c #918374",
"y	c #5D381E",
"z	c #7A5E43",
"A	c #57321C",
"B	c #746552",
"C	c #81715F",
"D	c #6F604E",
"E	c #827564",
"F	c #73624E",
"G	c #6C5843",
"H	c #68523F",
"I	c #542E19",
"J	c #624127",
"K	c #4E2913",
"L	c #674B2F",
"M	c #4F2713",
"N	c #897C6C",
"O	c #7E705E",
"P	c #6F5F4D",
"Q	c #634C38",
"R	c #66513D",
"S	c #675341",
"T	c #695542",
" .+++                      .++. ",
"@#$%+&&&&&+ &&&&&&&& &&&&&&.%%*+",
"=-#*.;>>;;,+,>>;;;>'.)>>;;>=**!~",
"{]^^~/,,,,(=_,,,,,,:=(,,,,,=<<[=",
"}|1123,,,,_45,,,,,,_=6,,,,,=11|=",
"}7882)6___9'06_____04666666=117a",
"}bcc2,____9'd______5e______=fg7a",
"}hbb=,ddddij9kkkkkkdedlllllabbb{",
"}hbb2,ddddmj9dddddddedkdddda77h{",
"}hb7~,l9ddmjmldkkkkd4dlkkklan7b{",
"=opp~)0000mj9000___d4d_____=qqb{",
"=bqq./0000djd000___d4d___0_=]]7{",
"2rss+/0000led______d=d0____=ttc{",
"~css+u,,,,:e:,,,,,,6~6,,,,,=tt|a",
"~f<<&',,,,v~:,,,,,,6+:,,,,,2ww]=",
".x<<&',,,3vyv/zzzzz:+:,,,,,2--s2",
"+&&&&'''''3&;...@@+zA''jjj>.&&&@",
"+]f]&&&&&&&&&&tttt+&&&&&&&&A]]].",
".^**&=22222&.&*&&$&.&e=====&**^.",
".w**&=;;jj'&e&BC&D&.&'>>>>>&**-@",
"~EBB&=>>>>'&e&FD&D&.&'eeeee&BBE+",
".*FB&=>>ee'&e&GH$G&.&'eeeee&BF*I",
"ABFF&=e>ee'&eJ&&&&.e&'eeeeeKDDB&",
"&FGGK~4444'&eeJJJJee&'eLLLeKGGF&",
"KFGGK~LLLL'&eeeeeeee&'LLLLLKGGFM",
"KFGGK.eLLL'&eeeeeeee&jLLLLeKGGFM",
"M@@AA.....'&........&j.....AAAAM",
"M-EE!KKK&&&&&&&&&&&&&&&&KKK!EE-M",
"KDDDBK$**CE-^NNNN<www-EO**KBPPDM",
"MQQQFKHRHHSSGGGGGTGGGGGSSSKFQQQM",
"MMMMMMMMMMMMMMMMMMMMMMMMMMMMMMMM",
"                                "};
