/* XPM */
static char * Collectible_star_top_xpm[] = {
"32 32 87 1",
" 	c #72751B",
".	c #5E3B24",
"+	c #59341D",
"@	c #5B3721",
"#	c #806F5E",
"$	c #7A6A56",
"%	c #796653",
"&	c #532C14",
"*	c #7C6D5C",
"=	c #64442C",
"-	c #867868",
";	c #705335",
">	c #6E5134",
",	c #836A4D",
"'	c #75593B",
")	c #7F6548",
"!	c #857866",
"~	c #613D25",
"{	c #654A35",
"]	c #94897B",
"^	c #8A7C6B",
"/	c #7D6144",
"(	c #877053",
"_	c #8E795C",
":	c #8A7256",
"<	c #887A69",
"[	c #93887B",
"}	c #6C4E39",
"|	c #998F81",
"1	c #938676",
"2	c #613E29",
"3	c #806649",
"4	c #694A2F",
"5	c #937D62",
"6	c #8C765A",
"7	c #9F9588",
"8	c #948778",
"9	c #CA822E",
"0	c #988367",
"a	c #907A5D",
"b	c #674731",
"c	c #A1978A",
"d	c #9B9082",
"e	c #958064",
"f	c #6A4D31",
"g	c #968B7C",
"h	c #988B7E",
"i	c #A2988C",
"j	c #DCBC22",
"k	c #9C876C",
"l	c #735539",
"m	c #947F64",
"n	c #957F63",
"o	c #998468",
"p	c #9E9487",
"q	c #A1988B",
"r	c #988D7E",
"s	c #978C7C",
"t	c #9C9384",
"u	c #8F8270",
"v	c #8F816E",
"w	c #785A3E",
"x	c #886F52",
"y	c #867A69",
"z	c #918374",
"A	c #5D381E",
"B	c #7A5E43",
"C	c #57321C",
"D	c #746552",
"E	c #81715F",
"F	c #6F604E",
"G	c #827564",
"H	c #73624E",
"I	c #6C5843",
"J	c #68523F",
"K	c #542E19",
"L	c #624127",
"M	c #4E2913",
"N	c #674B2F",
"O	c #4F2713",
"P	c #897C6C",
"Q	c #7E705E",
"R	c #6F5F4D",
"S	c #634C38",
"T	c #66513D",
"U	c #675341",
"V	c #695542",
" .+++                      .++. ",
"@#$%+&&&&&+ &&&&&&&& &&&&&&.%%*+",
"=-#*.;>>;;,+,>>;;;>'.)>>;;>=**!~",
"{]^^~/,,,,(=_,,,,,,:=(,,,,,=<<[=",
"}|1123,,,,_45,,,,,,_=6,,,,,=11|=",
"}7882)6_9_0'a6_____a4666666=117b",
"}cdd2,__9_0'e______5f______=gh7b",
"}icc=,e9j9kl0mmmmmmefennnnnbccc{",
"}icc2,e9j9ol0eeeeeeefemeeeeb77i{",
"}ic7~99jjj99onemmmme4enmmmnbp7c{",
"=qr99jjjjjjj99aa___e4e_____=ssc{",
"=css.99jjj99eaaa___e4e___a_=]]7{",
"2tuu+/a9j9nfe______e=ea____=vvd{",
"~duu+w,9j9:f:,,,,,,6~6,,,,,=vv|b",
"~g<<&',,9,x~:,,,,,,6+:,,,,,2yy]=",
".z<<&',,93xAx/BBBBB:+:,,,,,2--u2",
"+&&&&'''''3&;...@@+BC''lll>.&&&@",
"+]g]&&&&&&&&&&vvvv+&&&&&&&&C]]].",
".^**&=22222&.&*&&$&.&f=====&**^.",
".y**&=;;ll'&f&DE&F&.&'>>>>>&**-@",
"~GDD&=>>>>'&f&HF&F&.&'fffff&DDG+",
".*HD&=>>ff'&f&IJ$I&.&'fffff&DH*K",
"CDHH&=f>ff'&fL&&&&.f&'fffffMFFD&",
"&HIIM~4444'&ffLLLLff&'fNNNfMIIH&",
"MHIIM~NNNN'&ffffffff&'NNNNNMIIHO",
"MHIIM.fNNN'&ffffffff&lNNNNfMIIHO",
"O@@CC.....'&........&l.....CCCCO",
"O-GG!MMM&&&&&&&&&&&&&&&&MMM!GG-O",
"MFFFDM$**EG-^PPPP<yyy-GQ**MDRRFO",
"OSSSHMJTJJUUIIIIIVIIIIIUUUMHSSSO",
"OOOOOOOOOOOOOOOOOOOOOOOOOOOOOOOO",
"                                "};
