/* XPM */
static char *c86425f49ed0492cd1bc54941c055e86no1gDHO0zEYvEM2u[] = {
/* columns rows colors chars-per-pixel */
"32 32 92 1 ",
"  c #090000",
". c #03060D",
"X c #1B0000",
"o c #1D0000",
"O c #1E0C01",
"+ c #050A17",
"@ c #260000",
"# c #2D0001",
"$ c #220A07",
"% c #310000",
"& c #3B0002",
"* c #2F100B",
"= c #31110B",
"- c #091320",
"; c #112135",
": c #15263C",
"> c #480003",
", c #4D0005",
"< c #530003",
"1 c #530005",
"2 c #5F0006",
"3 c #4F1616",
"4 c #4F1F17",
"5 c #610204",
"6 c #690107",
"7 c #6D0005",
"8 c #6D0009",
"9 c #7F0408",
"0 c #452119",
"q c #5B231F",
"w c #583712",
"e c #692D28",
"r c #703529",
"t c #014C00",
"y c #72751B",
"u c #704236",
"i c #1F3046",
"p c #22324C",
"a c #263A50",
"s c #2E435B",
"d c #334C65",
"f c #3D516A",
"g c #465D74",
"h c #49627C",
"j c #4E647C",
"k c #80040A",
"l c #9E150E",
"z c #8E0012",
"x c #A6090F",
"c c #AE2011",
"v c #BB2215",
"b c #C51A16",
"n c #CF2A19",
"m c #EE3B20",
"M c #824C35",
"N c #87453E",
"B c #E6431B",
"V c #FF5422",
"C c #FF5C2D",
"Z c #FF6723",
"A c #FF752F",
"S c #9C5749",
"D c #A67445",
"F c #BE7359",
"G c #A96962",
"H c #0D8308",
"J c #CA822E",
"K c #FF8930",
"L c #D2B350",
"P c #CC8A6F",
"I c #C38673",
"U c #FFE973",
"Y c #4E6A81",
"T c #557288",
"R c #5C758A",
"E c #627A92",
"W c #67859B",
"Q c #6F899E",
"! c #7A99AE",
"~ c #7C9BB0",
"^ c #89A7BD",
"/ c #93ACBD",
"( c #EDB08C",
") c #FFD3AE",
"_ c #A7C5D1",
"` c #ADC6D4",
"' c #B0C9D7",
"] c #A6D5FA",
"[ c #BFFDFF",
"{ c #CFE9F3",
"} c #EEFFFF",
"| c white",
/* pixels */
"yyyyyyyyyyyyyyyyyyyyyyyyyyyyyyyy",
"yyyyyyyyyyyyyy@@@@yyyyyyyyyyyyyy",
"yyyyyyyyyyyy@@9xmA@yyyyyyyyyyyyy",
"yyyyy+yyyyy@596nBVK@yyyyyyyyyyyy",
"yyyy+p+yyy@192vnnBVK@yyyyyyyyyyy",
"yyyy+p+yy@188<9vnnBC@yyyyyyyyyyy",
"yyy+[p[+y@@1<89xvnnnb@yyyyyyyyyy",
"yyy+]p]+yyy@<,856kzxx@yyyyyyyyyy",
"yyy+^p]+yyyy@<59lcmm7@yyyyyyyyyy",
"yyy+Ep^+yyyy@1889999mA@yyyyyyyyy",
"yyy+Ep^+yyy@1>>##&&&<xZ@yyyyyyyy",
"yyy+jpE+yyyo>##NtNSIt<n@yyyyyyyy",
"yyy+jpE+yyX>#NNIHI((HF<*Jyyyyyyy",
"yyy+fpj+yyX#NNIIG(()((P*yyyyyyyy",
"yyyOfpfOyyy$NSSGu())u))-yyyyyyyy",
"yyODwwwLOyy-eNddTuuuTdd/-yyyyyyy",
"yyyODLUOyy-gsd|}}{d{{}|d-yyyyyyy",
"yyyyOOO-.-g/s}{ddd(ddd{}-yyyyyyy",
"yyy*I()0;sgs}sdNS())(Idd}-yyyyyy",
"yyy*uu0I:gsss`/hSuuuIh{_d-yyyyyy",
"yyy*I(=*:gW/`}{{hShSh{}|{!-yyyyy",
"yyyy*= y-gh!{}~{{h{h{}{}`/-*yyyy",
"yyyy 4 y--sW!{R{}{}{'{`{/--(*yyy",
"yyyy r y-y-gW!gR{}|{/{h/-G-)*yyy",
"yyyyy yyyyy-RR-R~{}`h/h/-**)*yyy",
"yyyyyyyyyyy-g-i-R'{/hWh-yyy*yyyy",
"yyyyyyyyyyy.--i-gW'Q-Y-i.yyyyyyy",
"yyyyyyyyyy %i-ia-Y/-y-ia% yyyyyy",
"yyyyyyyyy 3qqrq y-Y-y 3qrr yyyyy",
"yyyyyyyy 3qqrMr yy-yy qrrMM yyyy",
"yyyyyyyyy      yyyyyyy     yyyyy",
"yyyyyyyyyyyyyyyyyyyyyyyyyyyyyyyy"
};
