/* XPM */
static char *_031684b54d04f03da722efa694430e3Jw98woLjOJe77kE3[] = {
/* columns rows colors chars-per-pixel */
"32 32 94 2 ",
"   c #532E17",
".  c #522E18",
"X  c #543716",
"o  c #553917",
"O  c #54311C",
"+  c #5A371D",
"@  c #553B1A",
"#  c #563621",
"$  c #563A27",
"%  c #5C3C24",
"&  c #563D2A",
"*  c #5A3E2B",
"=  c #613F26",
"-  c #625617",
";  c #625816",
":  c #635619",
">  c #64591A",
",  c #695A1B",
"<  c #676219",
"1  c #6A631E",
"2  c #6E6C1A",
"3  c #716F1F",
"4  c #6F711A",
"5  c #72751B",
"6  c #5F4026",
"7  c #5B422E",
"8  c #5D4331",
"9  c #634226",
"0  c #63442A",
"q  c #694629",
"w  c #65492C",
"e  c #6A4B2E",
"r  c #655720",
"t  c #6E5F24",
"y  c #6C552C",
"u  c #70582E",
"i  c #604734",
"p  c #614936",
"a  c #6B4E32",
"s  c #624B3A",
"d  c #6A4E38",
"f  c #6E5135",
"g  c #66533E",
"h  c #6D533E",
"j  c #725335",
"k  c #725639",
"l  c #755A3B",
"z  c #795D3E",
"x  c #6E6223",
"c  c #706A21",
"v  c #72632B",
"b  c #727020",
"n  c #675341",
"m  c #695542",
"M  c #6D5947",
"N  c #6D5B49",
"B  c #705743",
"V  c #775D40",
"C  c #7B5F41",
"Z  c #725E49",
"A  c #7A6042",
"S  c #7D6142",
"D  c #7E6344",
"F  c #7E6444",
"G  c #71604E",
"H  c #75634E",
"J  c #7D6348",
"K  c #756654",
"L  c #7A6450",
"P  c #7B6650",
"I  c #7B6854",
"U  c #806646",
"Y  c #836B4B",
"T  c #846B4B",
"R  c #856C4C",
"E  c #896F4F",
"W  c #89704F",
"Q  c #856D50",
"!  c #8A6F52",
"~  c #897051",
"^  c #8B7154",
"/  c #8C7354",
"(  c #8D7456",
")  c #81705C",
"_  c #8D7559",
"`  c #8F785A",
"'  c #8F785C",
"]  c #907756",
"[  c #907858",
"{  c #957F5E",
"}  c #887762",
"|  c #967F61",
" . c #978060",
".. c #998260",
/* pixels */
"5 5 5 5 5 v l f > 5 5 5 5 5 5 5 5 5 5 5 5 5 5 v C z v 5 5 5 5 5 ",
"5 5 5 5 3 C T z : 5 5 5 5 5 5 5 5 5 5 5 5 5 5 t W E C b 5 5 5 5 ",
"5 5 5 5 y ( R f > 5 5 5 5 5 5 5 5 5 5 5 5 5 5 x S ] ~ u 5 5 5 5 ",
"5 5 5 2 Y / ~ f : 5 5 5 5 5 5 5 5 5 5 5 5 5 5 t D ..[ Y c 5 5 5 ",
"5 5 5 x _ ( C a : 5 5 5 5 5 5 5 5 5 5 5 5 5 5 t S ~ { ^ x 5 5 5 ",
"5 5 5 1 ' ( A a - 5 5 5 5 5 5 5 5 5 5 5 5 5 5 x S ^  .( x 5 5 5 ",
"5 5 5 J ` ( V e - 5 5 5 5 5 5 5 5 5 5 5 5 5 5 t S ! ..{ C 5 5 5 ",
"5 5 5 J ` Q a e - 5 5 5 5 5 5 5 5 5 5 5 5 5 5 t S S | { C 5 5 5 ",
"5 5 5 J ( Y 9 e - 5 5 5 5 5 5 5 5 5 5 5 5 5 5 t S l { ( l 5 5 5 ",
"5 5 5 k C f i . - 5 5 5 5 5 5 5 5 5 5 5 5 5 5 t e P U S e 5 5 5 ",
"5 5 5 B ) I * w - 5 5 5 5 5 5 5 5 5 5 5 5 5 5 , l h } } B 5 5 5 ",
"5 5 5 d Z m 9 w - 5 5 5 5 5 5 5 5 5 5 5 5 5 5 , S j Z P d 5 5 5 ",
"5 5 5 9 q 0 e w - 5 5 5 5 5 5 5 5 5 5 5 5 5 5 , S S C j 9 5 5 5 ",
"5 5 5 j F z w % w 4 5 5 5 5 5 5 5 5 5 5 5 5 5 l j S ~ Y a 5 5 5 ",
"5 5 5 f A l w O $ 2 5 5 5 5 5 5 5 5 5 5 5 5 2 h 9 C E U a 5 5 5 ",
"5 5 5 f C k 0 O $ 2 5 5 5 5 5 5 5 5 5 5 5 5 2 h = z R S w 5 5 5 ",
"5 5 5 f z k 0 % : 5 5 5 5 5 5 5 5 5 5 5 5 5 5 r j l T C w 5 5 5 ",
"5 5 5 a z k 9 = - 5 5 5 5 5 5 5 5 5 5 5 5 5 5 : j j Y z 0 5 5 5 ",
"5 5 5 a l f 9 % - 5 5 5 5 5 5 5 5 5 5 5 5 5 5 - a e U l 9 5 5 5 ",
"5 5 5 a l f % % - 5 5 5 5 5 5 5 5 5 5 5 5 5 5 - % M A l 9 5 5 5 ",
"5 5 4 # 9 % *   - 5 5 5 5 5 5 5 5 5 5 5 5 5 5 - 9 s p % O 4 5 5 ",
"5 5 4 i H Z # O 7 2 5 5 5 5 5 5 5 5 5 5 5 5 2 g % % M H p 4 5 5 ",
"5 5 4 # 8 7 + . $ 2 5 5 5 5 5 5 5 5 5 5 5 5 2 8 O q 7 8 # 4 5 5 ",
"5 5 4 % a e   8 $ 2 5 5 5 5 5 5 5 5 5 5 5 5 2 7 N + k f % 4 5 5 ",
"5 5 4 w l a O 7 - 5 5 5 5 5 5 5 5 5 5 5 5 5 5 - g * C k 6 4 5 5 ",
"5 5 4 O # O * 7 ; 5 5 5 5 5 5 5 5 5 5 5 5 5 5 - m n # # . 4 5 5 ",
"5 5 4 p Z M 8 o 5 5 5 5 5 5 5 5 5 5 5 5 5 5 5 5 @ K G M 8 4 5 5 ",
"5 5 4 p N n & > 5 5 5 5 5 5 5 5 5 5 5 5 5 5 5 5 > N N m * 4 5 5 ",
"5 5 4 i N n # 5 5 5 5 5 5 5 5 5 5 5 5 5 5 5 5 5 5 s N m * 4 5 5 ",
"5 5 5 o @ @ < 5 5 5 5 5 5 5 5 5 5 5 5 5 5 5 5 5 5 1 @ @ X 5 5 5 ",
"5 5 5 5 5 5 5 5 5 5 5 5 5 5 5 5 5 5 5 5 5 5 5 5 5 5 5 5 5 5 5 5 ",
"5 5 5 5 5 5 5 5 5 5 5 5 5 5 5 5 5 5 5 5 5 5 5 5 5 5 5 5 5 5 5 5 "
};
