/* XPM */
static char * Exit_xpm[] = {
"32 32 82 1",
" 	c #72751B",
".	c #715536",
"+	c #765A3B",
"@	c #68462B",
"#	c #89704D",
"$	c #896E4D",
"%	c #876C4B",
"&	c #634126",
"*	c #856B4B",
"=	c #65442A",
"-	c #6A4A2E",
";	c #876C4C",
">	c #8B7150",
",	c #907756",
"'	c #90785A",
")	c #957D5E",
"!	c #8F7657",
"~	c #795D3E",
"{	c #735738",
"]	c #5C3B23",
"^	c #806544",
"/	c #927B5C",
"(	c #7F6343",
"_	c #7B613F",
":	c #7D6244",
"<	c #81674A",
"[	c #82684A",
"}	c #6D4E31",
"|	c #907758",
"1	c #7F6547",
"2	c #7B6140",
"3	c #613F25",
"4	c #7A5F40",
"5	c #7F6444",
"6	c #6E5134",
"7	c #67492D",
"8	c #644A35",
"9	c #5A361D",
"0	c #7F6955",
"a	c #735B44",
"b	c #826E5B",
"c	c #55321B",
"d	c #796752",
"e	c #7B6A54",
"f	c #7E6D57",
"g	c #83735E",
"h	c #7F6F59",
"i	c #867661",
"j	c #785F49",
"k	c #887865",
"l	c #5D412E",
"m	c #6C5A45",
"n	c #75614B",
"o	c #7A6853",
"p	c #776650",
"q	c #75634D",
"r	c #73614B",
"s	c #725E49",
"t	c #5D3A1F",
"u	c #654E3B",
"v	c #6A5542",
"w	c #6C533C",
"x	c #553622",
"y	c #532F18",
"z	c #80715D",
"A	c #847563",
"B	c #6B4F3A",
"C	c #675441",
"D	c #6E5C4A",
"E	c #4F2A15",
"F	c #5E3F2A",
"G	c #522D16",
"H	c #603F28",
"I	c #563926",
"J	c #7F705D",
"K	c #877968",
"L	c #8A7D6C",
"M	c #5E4434",
"N	c #7E6F5B",
"O	c #573A28",
"P	c #746451",
"Q	c #66513E",
"       .++@##$%&****=--@        ",
"    &=;>,'-))''-'''!=+~+{&]     ",
"   {^-!'/'-~~+(&+~~_=:<;[-}=    ",
"  {;|@~([(@((~(-~~(_--12(-<{-   ",
" -:;~&~*^^-((((-~((_}(222}~1+3  ",
" +[++-^11^}((2(-_((_}4222.~_1{  ",
"-[4++-:^^1}2__5-((((64222.~_2<7 ",
"71+++}(1((}42_(-^(((6~~22.~~~[8 ",
"9&&==&--0a}444(}^(((}}b@@=====c ",
"]deffggghij+44(}^(_+jk0gheeeedl ",
"]mannddo008+~~(}^((_8poqrsssam] ",
"c999t9tt876~~~(}^(((}3utt]]tttc ",
"9{{{{&~~.}6~~~(}[(((6~6~~.{{.{] ",
"9{{++-4~266~~~(}[(((}2~~~.{{{{] ",
"9{{{{-2~~66~~~2}[(((64~~~..{{{] ",
"c{{{{-4+++6+++2-[_2264~~~6....] ",
"c.{{{-4+++6+{6vvvw+_.2~~~6....] ",
"c....}~+{{}+}veoes-_.4+~~}666.] ",
"c....}~.{{}+}urxsw=~6~+++-6666] ",
"c....}~...}{}=www8=+}~+++-6666] ",
"y====&}=s6}{.=]c]&.+66q--&&&&&c ",
"xqdeezggfAB.{{{=+{{{Bidheddddql ",
"cvmssqqpddC}{{{={{{6vqqqsDDDmw] ",
"EyyccyccuF&...{=....=]ucccccyyG ",
"y}-}}]667}=....&.666=.={.=----c ",
"c6666&666.=....]6666=++++=}}}}c ",
"G]]]H]F]]]]]]]xy]]]]]]]]]]]]xcE ",
"IhhhJJJggAAiiKLMLLAAAgJJNNNNNJM ",
"cCCCCCCmmDDDDDpOPsDDDDDmmmvvQQx ",
"cQQQCCCCmmmmmDPIrDDDmmmvCCQQuux ",
"y88uQQQQQQCCCCDxmCCCCCQQuuuuu8x ",
"                                "};
