/* XPM */
static char *c3f20491cff74b61ed4225f5616dd89a8zGSZY5Oq8r8dOky[] = {
/* columns rows colors chars-per-pixel */
"32 32 1 1 ",
"  c #72751B",
/* pixels */
"                                ",
"                                ",
"                                ",
"                                ",
"                                ",
"                                ",
"                                ",
"                                ",
"                                ",
"                                ",
"                                ",
"                                ",
"                                ",
"                                ",
"                                ",
"                                ",
"                                ",
"                                ",
"                                ",
"                                ",
"                                ",
"                                ",
"                                ",
"                                ",
"                                ",
"                                ",
"                                ",
"                                ",
"                                ",
"                                ",
"                                ",
"                                "
};
