/* XPM */
static char * Player_xpm[] = {
"32 32 153 2",
"  	c #72751B",
". 	c #302432",
"+ 	c #2E2432",
"@ 	c #332A3C",
"# 	c #3C3343",
"$ 	c #453B4B",
"% 	c #392E3C",
"& 	c #2E222F",
"* 	c #332837",
"= 	c #4D4252",
"- 	c #5E5262",
"; 	c #6C5E73",
"> 	c #776981",
", 	c #796B84",
"' 	c #74667C",
") 	c #66596B",
"! 	c #625565",
"~ 	c #3B303F",
"{ 	c #4B3D4B",
"] 	c #5A4D5E",
"^ 	c #76687F",
"/ 	c #645768",
"( 	c #6F6178",
"_ 	c #423646",
": 	c #514656",
"< 	c #695C6F",
"[ 	c #624553",
"} 	c #624D5C",
"| 	c #554A5A",
"1 	c #453846",
"2 	c #5C3E41",
"3 	c #A0595A",
"4 	c #D57573",
"5 	c #B36166",
"6 	c #5D414F",
"7 	c #4E4858",
"8 	c #423548",
"9 	c #2E273A",
"0 	c #865953",
"a 	c #DB8F7E",
"b 	c #D28A79",
"c 	c #805452",
"d 	c #524A54",
"e 	c #5B4850",
"f 	c #4D353B",
"g 	c #96645A",
"h 	c #E39682",
"i 	c #D58E82",
"j 	c #7E667A",
"k 	c #8EA1A5",
"l 	c #C5CAC2",
"m 	c #E1ACA6",
"n 	c #D97779",
"o 	c #92515A",
"p 	c #3B354C",
"q 	c #483641",
"r 	c #CF8978",
"s 	c #F4A28C",
"t 	c #FBA58E",
"u 	c #8D6764",
"v 	c #BAB6B6",
"w 	c #F3E6E5",
"x 	c #F6BEBD",
"y 	c #DA787A",
"z 	c #904E57",
"A 	c #2E293D",
"B 	c #54393D",
"C 	c #B97A6C",
"D 	c #F29E8A",
"E 	c #FCA790",
"F 	c #F3A493",
"G 	c #EAA493",
"H 	c #B17B74",
"I 	c #63434E",
"J 	c #1B1A2C",
"K 	c #C38172",
"L 	c #735154",
"M 	c #312739",
"N 	c #57423A",
"O 	c #905D4D",
"P 	c #D77B74",
"Q 	c #F78884",
"R 	c #5F4C4C",
"S 	c #323459",
"T 	c #5D546D",
"U 	c #B38F59",
"V 	c #E6AF4E",
"W 	c #F6AD75",
"X 	c #312B42",
"Y 	c #414066",
"Z 	c #464874",
"` 	c #494A77",
" .	c #565378",
"..	c #866F6E",
"+.	c #CFA158",
"@.	c #F3BB42",
"#.	c #F7BF3E",
"$.	c #D6A757",
"%.	c #897274",
"&.	c #494C7B",
"*.	c #464A79",
"=.	c #34314D",
"-.	c #42436B",
";.	c #997D69",
">.	c #DAAC54",
",.	c #CCA678",
"'.	c #7775A6",
").	c #4360B0",
"!.	c #4B5DA4",
"~.	c #49528B",
"{.	c #3D3A5C",
"].	c #3A3758",
"^.	c #464772",
"/.	c #525586",
"(.	c #6469A3",
"_.	c #626DB0",
":.	c #5264AE",
"<.	c #4A5A9C",
"[.	c #332F4A",
"}.	c #495086",
"|.	c #393554",
"1.	c #3C477E",
"2.	c #5F66AC",
"3.	c #6C6BAE",
"4.	c #5E5C96",
"5.	c #3A4274",
"6.	c #4C62AD",
"7.	c #001B40",
"8.	c #C2827B",
"9.	c #885655",
"0.	c #3E436F",
"a.	c #3D3E65",
"b.	c #452E43",
"c.	c #644342",
"d.	c #E6817C",
"e.	c #B65F64",
"f.	c #5B3644",
"g.	c #22253B",
"h.	c #8D5B55",
"i.	c #DC907E",
"j.	c #323352",
"k.	c #48466F",
"l.	c #4B3855",
"m.	c #001729",
"n.	c #7C464A",
"o.	c #1E243E",
"p.	c #2D3354",
"q.	c #000F28",
"r.	c #7D514D",
"s.	c #794F4D",
"t.	c #53373A",
"u.	c #3B2A34",
"v.	c #2E2940",
"                                                                ",
"                  . . . . . . . . .                             ",
"              + @ # $ $ $ $ $ $ $ # % % %     & &               ",
"          + * # = - ; > , , , ' ) - ! ; ' - ~ . & &             ",
"        * ~ { ] ; ^ ' ) ! ! / / ! - ! ! ) ' ( = +               ",
"    + @ _ : ) ' ' < ! - : = ] ] { { [ } ! ! - = # * +           ",
"    . % $ | ! / / ! | = | ] = 1 2 3 4 5 6 7 - ! | $ % .         ",
"& * # : - ! ! ! ] = : ] : 8 9 0 a b c { d e [ } ] $ % .         ",
"& * # : - ! - = = ] ! - = _ f g h i j k l m n o p # % .         ",
"    . % $ | - - - - | $ q c r s t b u v w x y z # # % .         ",
"        * # _ 8 8 _ A B C D t E E t s F G H I _ # * +           ",
"          . . . . . J B C D t t t t D K L 1 # M .               ",
"                    9 % N O P Q Q P g R $ @ .                   ",
"              M M @ S T U V W t t W V U T S @ M M               ",
"          & X Y Z Z ` `  ...+.@.#.$.%. .&.*.Z Z Y X &           ",
"          * =.-.` ` ` ` ` `  .;.>.,.'.).!.~.` ` -.=.*           ",
"        @ {.Z ` -.=.].^.` ` ` /.(._.:.<.&.].=.-.` Z {.@         ",
"      X =.-.&.&.-.[.].*.&.&.` }.!.!.}.` ^.|.[.-.&.&.-.=.X       ",
"    @ 1.!.2.3.3.4.{.5.!.6.!.~.` &.&.` ` ^.|.{.4.3.3.2.!.1.@     ",
"      7.[ 8.F F i 9.8 {.0.*.` Z Z Z ^.a.|.b.9.i F F 8.[ 7.      ",
"        c.K s t D d.e.f.g.@ @ @ @ @ X g.f.e.d.D t s K c.        ",
"          f h.i.a h.b.=.j.j.j.j.j.{.k.` k.l.h.a i.h.f           ",
"          m.n.4 4 n.o.j.j.j.j.j.S a.Z ` ^.p.n.4 4 n.m.          ",
"          q.r.b b s.o.j.j.j.j.].-.Z ` ` ^.p.s.b b r.q.          ",
"              2 t.u.v.j.j.=.X + M |.^.` ^.|.u.t.2               ",
"                  + X j.j.=.A & & |.^.` ^.|.+                   ",
"              & A [.j.j.X +     + |.^.` ^.|.+                   ",
"              & 9 [.j.=.X +     + =.-.` k.|.+                   ",
"              & + + + + + &     & + M @ M * &                   ",
"              & & & & & & &     & * # # # @ .                   ",
"          & & & & & & & & &     & @ # # # # # * &               ",
"          & & & & & & & &           . . . . .                   "};
