/* XPM */
static char * Player_on_exit_xpm[] = {
"32 32 217 2",
"  	c #72751B",
". 	c #715536",
"+ 	c #765A3B",
"@ 	c #68462B",
"# 	c #89704D",
"$ 	c #896E4D",
"% 	c #876C4B",
"& 	c #634126",
"* 	c #856B4B",
"= 	c #65442A",
"- 	c #6A4A2E",
"; 	c #876C4C",
"> 	c #8B7150",
", 	c #907756",
"' 	c #302432",
") 	c #90785A",
"! 	c #8F7657",
"~ 	c #795D3E",
"{ 	c #735738",
"] 	c #5C3B23",
"^ 	c #806544",
"/ 	c #2E2432",
"( 	c #332A3C",
"_ 	c #3C3343",
": 	c #453B4B",
"< 	c #392E3C",
"[ 	c #7D6244",
"} 	c #81674A",
"| 	c #2E222F",
"1 	c #6D4E31",
"2 	c #907758",
"3 	c #332837",
"4 	c #4D4252",
"5 	c #5E5262",
"6 	c #6C5E73",
"7 	c #776981",
"8 	c #796B84",
"9 	c #74667C",
"0 	c #66596B",
"a 	c #625565",
"b 	c #3B303F",
"c 	c #4B3D4B",
"d 	c #5A4D5E",
"e 	c #76687F",
"f 	c #645768",
"g 	c #6F6178",
"h 	c #7F6547",
"i 	c #613F25",
"j 	c #423646",
"k 	c #514656",
"l 	c #695C6F",
"m 	c #624553",
"n 	c #624D5C",
"o 	c #7B613F",
"p 	c #82684A",
"q 	c #554A5A",
"r 	c #453846",
"s 	c #5C3E41",
"t 	c #A0595A",
"u 	c #D57573",
"v 	c #B36166",
"w 	c #5D414F",
"x 	c #4E4858",
"y 	c #7B6140",
"z 	c #67492D",
"A 	c #423548",
"B 	c #2E273A",
"C 	c #865953",
"D 	c #DB8F7E",
"E 	c #D28A79",
"F 	c #805452",
"G 	c #524A54",
"H 	c #5B4850",
"I 	c #644A35",
"J 	c #4D353B",
"K 	c #96645A",
"L 	c #E39682",
"M 	c #D58E82",
"N 	c #7E667A",
"O 	c #8EA1A5",
"P 	c #C5CAC2",
"Q 	c #E1ACA6",
"R 	c #D97779",
"S 	c #92515A",
"T 	c #3B354C",
"U 	c #55321B",
"V 	c #796752",
"W 	c #483641",
"X 	c #CF8978",
"Y 	c #F4A28C",
"Z 	c #FBA58E",
"` 	c #8D6764",
" .	c #BAB6B6",
"..	c #F3E6E5",
"+.	c #F6BEBD",
"@.	c #DA787A",
"#.	c #904E57",
"$.	c #7B6A54",
"%.	c #5D412E",
"&.	c #6C5A45",
"*.	c #735B44",
"=.	c #75614B",
"-.	c #2E293D",
";.	c #54393D",
">.	c #B97A6C",
",.	c #F29E8A",
"'.	c #FCA790",
").	c #F3A493",
"!.	c #EAA493",
"~.	c #B17B74",
"{.	c #63434E",
"].	c #725E49",
"^.	c #5A361D",
"/.	c #5D3A1F",
"(.	c #1B1A2C",
"_.	c #C38172",
":.	c #735154",
"<.	c #312739",
"[.	c #57423A",
"}.	c #905D4D",
"|.	c #D77B74",
"1.	c #F78884",
"2.	c #5F4C4C",
"3.	c #7A5F40",
"4.	c #323459",
"5.	c #5D546D",
"6.	c #B38F59",
"7.	c #E6AF4E",
"8.	c #F6AD75",
"9.	c #312B42",
"0.	c #414066",
"a.	c #464874",
"b.	c #494A77",
"c.	c #565378",
"d.	c #866F6E",
"e.	c #CFA158",
"f.	c #F3BB42",
"g.	c #F7BF3E",
"h.	c #D6A757",
"i.	c #897274",
"j.	c #494C7B",
"k.	c #464A79",
"l.	c #34314D",
"m.	c #42436B",
"n.	c #997D69",
"o.	c #DAAC54",
"p.	c #CCA678",
"q.	c #7775A6",
"r.	c #4360B0",
"s.	c #4B5DA4",
"t.	c #49528B",
"u.	c #3D3A5C",
"v.	c #3A3758",
"w.	c #464772",
"x.	c #525586",
"y.	c #6469A3",
"z.	c #626DB0",
"A.	c #5264AE",
"B.	c #4A5A9C",
"C.	c #332F4A",
"D.	c #495086",
"E.	c #393554",
"F.	c #3C477E",
"G.	c #5F66AC",
"H.	c #6C6BAE",
"I.	c #5E5C96",
"J.	c #3A4274",
"K.	c #4C62AD",
"L.	c #001B40",
"M.	c #C2827B",
"N.	c #885655",
"O.	c #3E436F",
"P.	c #3D3E65",
"Q.	c #452E43",
"R.	c #6E5134",
"S.	c #532F18",
"T.	c #644342",
"U.	c #E6817C",
"V.	c #B65F64",
"W.	c #5B3644",
"X.	c #22253B",
"Y.	c #553622",
"Z.	c #75634D",
"`.	c #8D5B55",
" +	c #DC907E",
".+	c #323352",
"++	c #48466F",
"@+	c #4B3855",
"#+	c #6A5542",
"$+	c #001729",
"%+	c #7C464A",
"&+	c #1E243E",
"*+	c #2D3354",
"=+	c #6E5C4A",
"-+	c #6C533C",
";+	c #4F2A15",
">+	c #000F28",
",+	c #7D514D",
"'+	c #794F4D",
")+	c #522D16",
"!+	c #53373A",
"~+	c #3B2A34",
"{+	c #2E2940",
"]+	c #603F28",
"^+	c #5E3F2A",
"/+	c #563926",
"(+	c #7F6F59",
"_+	c #7F705D",
":+	c #8A7D6C",
"<+	c #5E4434",
"[+	c #7E6F5B",
"}+	c #675441",
"|+	c #776650",
"1+	c #573A28",
"2+	c #66513E",
"3+	c #746451",
"4+	c #654E3B",
"              . + + @ # # $ % & * * * * = - - @                 ",
"        & = ; > , ' ' ' ' ' ' ' ' ' ) ! = + ~ + { & ]           ",
"      { ^ - ! / ( _ : : : : : : : _ < < < [ } | | - 1 =         ",
"    { ; 2 / 3 _ 4 5 6 7 8 8 8 9 0 5 a 6 9 5 b ' | | } { -       ",
"  - [ ; 3 b c d 6 e 9 0 a a f f a 5 a a 0 9 g 4 / 1 ~ h + i     ",
"  + / ( j k 0 9 9 l a 5 k 4 d d c c m n a a 5 4 _ 3 / o h {     ",
"- p ' < : q a f f a q 4 q d 4 r s t u v w x 5 a q : < ' y } z   ",
"| 3 _ k 5 a a a d 4 k d k A B C D E F c G H m n d : < ' ~ p I   ",
"| 3 _ k 5 a 5 4 4 d a 5 4 j J K L M N O P Q R S T _ < ' = = U   ",
"] V ' < : q 5 5 5 5 q : W F X Y Z E `  ...+.@.#._ _ < ' $.V %.  ",
"] &.*.=.3 _ j A A j -.;.>.,.Z '.'.Z Y ).!.~.{.j _ 3 / ].*.&.]   ",
"U ^.^.^./.' ' ' ' ' (.;.>.,.Z Z Z Z ,._.:.r _ <.' ] ] /././.U   ",
"^.{ { { { & ~ ~ . 1 B < [.}.|.1.1.|.K 2.: ( ' ~ ~ . { { . { ]   ",
"^.{ { + + - 3.<.<.( 4.5.6.7.8.Z Z 8.7.6.5.4.( <.<.. { { { { ]   ",
"^.{ { { { | 9.0.a.a.b.b.c.d.e.f.g.h.i.c.j.k.a.a.0.9.| { { { ]   ",
"U { { { { 3 l.m.b.b.b.b.b.b.c.n.o.p.q.r.s.t.b.b.m.l.3 . . . ]   ",
"U . { { ( u.a.b.m.l.v.w.b.b.b.x.y.z.A.B.j.v.l.m.b.a.u.( . . ]   ",
"U . . 9.l.m.j.j.m.C.v.k.j.j.b.D.s.s.D.b.w.E.C.m.j.j.m.l.9.. ]   ",
"U . ( F.s.G.H.H.I.u.J.s.K.s.t.b.j.j.b.b.w.E.u.I.H.H.G.s.F.( ]   ",
"U . . L.m M.).).M N.A u.O.k.b.a.a.a.w.P.E.Q.N.M ).).M.m L.R.]   ",
"S.= = = T._.Y Z ,.U.V.W.X.( ( ( ( ( 9.X.W.V.U.,.Z Y _.T.& & U   ",
"Y.Z.V $.$.J `. +D `.Q.l..+.+.+.+.+u.++b.++@+`.D  +`.J V V Z.%.  ",
"U #+&.].].$+%+u u %+&+.+.+.+.+.+4.P.a.b.w.*+%+u u %+$+=+&.-+]   ",
";+S.S.U U >+,+E E '+&+.+.+.+.+v.m.a.b.b.w.*+'+E E ,+>+U S.S.)+  ",
"S.1 - 1 1 ] R.s !+~+{+.+.+l.9./ <.E.w.b.w.E.~+!+s = - - - - U   ",
"U R.R.R.R.& R.R.R./ 9..+.+l.-.| | E.w.b.w.E./ + + = 1 1 1 1 U   ",
")+] ] ] ]+] ^+| -.C..+.+9./ Y.S./ E.w.b.w.E./ ] ] ] ] ] Y.U ;+  ",
"/+(+(+(+_+_+_+| B C..+l.9./ :+<+/ l.m.b.++E./ _+[+[+[+[+[+_+<+  ",
"U }+}+}+}+}+}+| / / / / / | |+1+| / <.( <.3 | &.&.&.#+#+2+2+Y.  ",
"U 2+2+2+}+}+}+| | | | | | | 3+/+| 3 _ _ _ ( ' #+}+}+2+2+4+4+Y.  ",
"S.I I 4+2+| | | | | | | | | =+Y.| ( _ _ _ _ _ 3 | 4+4+4+4+I Y.  ",
"          | | | | | | | |           ' ' ' ' '                   "};
