/* XPM */
static char *_99efd8517644e1b8060a6f6563f375cPEWbFpUYVGA9iYED[] = {
/* columns rows colors chars-per-pixel */
"32 32 28 1 ",
"  c #6F6E4F",
". c #716F53",
"X c #7D7E57",
"o c #74725F",
"O c #767363",
"+ c #797763",
"@ c #7B7966",
"# c #7F7C70",
"$ c #807E72",
"% c #818166",
"& c #828168",
"* c #84846B",
"= c #85846D",
"- c #838073",
"; c #868572",
": c #838175",
"> c #868575",
", c #858378",
"< c #878679",
"1 c #87847A",
"2 c #88877A",
"3 c #88867C",
"4 c #89887B",
"5 c #8A897E",
"6 c #8C8A7F",
"7 c #8D8B81",
"8 c #8E8D83",
"9 c #8F8D84",
/* pixels */
"X&><<<<<<<<<<<<<<<<<<<<<<<<<<;%X",
"=;><<<<<<<<<<<<<<<<<<<<<<<<<<>;*",
"54<<<<<<<<<<<<<<<<<<<<<<<<<<<244",
"752<<<<<<<<<<<<<<<<<<<<<<<<<<257",
"752<<<<<<<<<<<<<<<<<<<<<<<<<<257",
"752<<<<<<<<<<<<<<<<<<<<<<<<<<257",
"752<<<<<<<<<<<<<<<<<<<<<<<<<<257",
"752<<<<<<<<<<<<<<<<<<<<<<<<<<257",
"752<<<<<<<<<<<<<<<<<<<<<<<<<<257",
"752<<<<<<<<<<<<<<<<<<<<<<<<<<257",
"752<<<<<<<<<<<<<<<<<<<<<<<<<<257",
"752<<<<<<<<<<<<<<<<<<<<<<<<<<257",
"752<<<<<<<<<<<<<<<<<<<<<<<<<<257",
"752<<<<<<<<<<<<<<<<<<<<<<<<<<257",
"752<<<<<<<<<<<<<<<<<<<<<<<<<<257",
"752<<<<<<<<<<<<<<<<<<<<<<<<<<257",
"752<<<<<<<<<<<<<<<<<<<<<<<<<<257",
"752<<<<<<<<<<<<<<<<<<<<<<<<<<257",
"752<<<<<<<<<<<<<<<<<<<<<<<<<<257",
"752<<<<<<<<<<<<<<<<<<<<<<<<<<257",
"752<<<<<<<<<<<<<<<<<<<<<<<<<<257",
"752<<<<<<<<<<<<<<<<<<<<<<<<<<257",
"752<<<<<<<<<<<<<<<<<<<<<<<<<<257",
"752<<<<<<<<<<<<<<<<<<<<<<<<<<257",
"752<<<<<<<<<<<<<<<<<<<<<<<<<<257",
"752<<<<<<<<<<<<<<<<<<<<<<<<<<257",
"752<<<<<<<<<<<<<<<<<<<<<<<<<<257",
"752<<<<<<<<<<<<<<<<<<<<<<<<<<256",
"33555555555555455555554555555532",
"$<5888888888788888888888888885,#",
"O$5898888888788888888888888985$o",
".@:<<<<<<<<<<<<<<<<222222222<-+ "
};
